fs/stethoscope_20_regular.svg

<svg viewBox="0 0 20 20" fill="none" xmlns="http://www.w3.org/2000/svg" height="1em" width="1em">
  <path d="M2.5 2C2.22386 2 2 2.22386 2 2.5V7.50003C2 9.8163 3.75002 11.7238 6 11.9726V13C6 15.7614 8.23858 18 11 18C13.7614 18 16 15.7614 16 13V11.95C17.1411 11.7184 18 10.7095 18 9.5C18 8.11929 16.8807 7 15.5 7C14.1193 7 13 8.11929 13 9.5C13 10.7095 13.8589 11.7184 15 11.95V13C15 15.2092 13.2091 17 11 17C8.79086 17 7 15.2092 7 13V11.9726C9.24998 11.7238 11 9.8163 11 7.50003V2.5C11 2.22386 10.7761 2 10.5 2H8.5C8.22386 2 8 2.22386 8 2.5C8 2.77614 8.22386 3 8.5 3H10V7.50003C10 9.43302 8.433 11 6.5 11C4.567 11 3 9.43302 3 7.50003V3H4.5C4.77614 3 5 2.77614 5 2.5C5 2.22386 4.77614 2 4.5 2H2.5ZM15.5 8C16.3284 8 17 8.67157 17 9.5C17 10.3284 16.3284 11 15.5 11C14.6716 11 14 10.3284 14 9.5C14 8.67157 14.6716 8 15.5 8Z" fill="#212121"/>
</svg>

<svg viewBox="0 0 20 20" fill="none" xmlns="http://www.w3.org/2000/svg" height="1em" width="1em">
  <path d="M2.5 2a.5.5 0 0 0-.5.5v5a4.5 4.5 0 0 0 4 4.473V13a5 5 0 0 0 10 0v-1.05a2.5 2.5 0 1 0-1 0V13a4 4 0 1 1-8 0v-1.027A4.5 4.5 0 0 0 11 7.5v-5a.5.5 0 0 0-.5-.5h-2a.5.5 0 0 0 0 1H10v4.5a3.5 3.5 0 0 1-7 0V3h1.5a.5.5 0 0 0 0-1h-2Zm13 6a1.5 1.5 0 1 1 0 3 1.5 1.5 0 0 1 0-3Z" fill="#212121"/>
</svg>
